hamburger.svg

<svg  viewBox="0 0 24 24" fill="currentColor"><path  d="M22 13C22 14.11 21.11 15 20 15H4C2.9 15 2 14.11 2 13S2.9 11 4 11H13L15.5 13L18 11H20C21.11 11 22 11.9 22 13M12 3C3 3 3 9 3 9H21C21 9 21 3 12 3M3 18C3 19.66 4.34 21 6 21H18C19.66 21 21 19.66 21 18V17H3V18Z"/></svg>

<svg fill="currentColor" viewBox="0 0 24 24"><path d="M22 13c0 1.11-.89 2-2 2H4a2 2 0 1 1 0-4h9l2.5 2 2.5-2h2a2 2 0 0 1 2 2M12 3C3 3 3 9 3 9h18s0-6-9-6M3 18c0 1.66 1.34 3 3 3h12c1.66 0 3-1.34 3-3v-1H3z"/></svg>
